;FLAVOR:Marlin
;TIME:1139
;Filament used: 0.667001m
;Layer height: 0.28
;MINX:97.516
;MINY:99.075
;MINZ:0.28
;MAXX:137.484
;MAXY:135.925
;MAXZ:22.96
;Generated with Cura_SteamEngine 4.13.1
M140 S50
M105
M190 S50
M104 S200
M105
M109 S200
M82 ;absolute extrusion mode
; Ender 3 Custom Start G-code
G92 E0 ; Reset Extruder
G28 ; Home all axes
G1 Z2.0 F3000 ; Move Z Axis up little to prevent scratching of Heat Bed
G1 X0.1 Y20 Z0.3 F5000.0 ; Move to start position
G1 X0.1 Y200.0 Z0.3 F1500.0 E15 ; Draw the first line
G1 X0.4 Y200.0 Z0.3 F5000.0 ; Move to side a little
G1 X0.4 Y20 Z0.3 F1500.0 E30 ; Draw the second line
G92 E0 ; Reset Extruder
G1 Z2.0 F3000 ; Move Z Axis up little to prevent scratching of Heat Bed
G1 X5 Y20 Z0.3 F5000.0 ; Move over to prevent blob squish
G92 E0
G92 E0
G1 F2700 E-5
;LAYER_COUNT:82
;LAYER:0
M107
G0 F6000 X104.742 Y104.186 Z0.28
;TYPE:SKIRT
G1 F2700 E0
G1 F1200 X105.75 Y103.288 E0.06286
G1 X106.025 Y103.072 E0.07914
G1 X106.336 Y102.837 E0.09729
G1 X106.715 Y102.562 E0.1191
G1 X107.324 Y102.13 E0.15387
G1 X108.111 Y101.621 E0.19751
G1 X108.593 Y101.353 E0.22319
G1 X108.792 Y101.249 E0.23364
G1 X109.048 Y101.12 E0.24699
G1 X109.295 Y100.999 E0.2598
G1 X109.582 Y100.863 E0.27459
G1 X110.176 Y100.595 E0.30493
G1 X110.778 Y100.334 E0.33549
G1 X111.654 Y99.998 E0.37917
G1 X112.509 Y99.749 E0.42064
G1 X112.844 Y99.666 E0.43671
G1 X113.231 Y99.577 E0.4552
G1 X113.736 Y99.472 E0.47922
G1 X114.496 Y99.321 E0.5153
G1 X115.298 Y99.192 E0.55312
G1 X115.534 Y99.163 E0.5642
G1 X116.745 Y99.082 E0.62071
G1 X117.334 Y99.075 E0.64814
G1 X117.628 Y99.075 E0.66183
G1 X118.237 Y99.084 E0.69019
G1 X119.409 Y99.164 E0.74489
G1 X119.728 Y99.203 E0.75985
G1 X120.492 Y99.324 E0.79587
G1 X121.387 Y99.498 E0.83833
G1 X121.771 Y99.58 E0.85661
G1 X122.263 Y99.694 E0.88013
G1 X123.167 Y99.944 E0.9238
G1 X124.084 Y100.287 E0.96939
G1 X124.886 Y100.628 E1.00997
G1 X125.201 Y100.768 E1.02602
G1 X125.629 Y100.966 E1.04798
G1 X125.945 Y101.118 E1.06431
G1 X126.202 Y101.247 E1.0777
G1 X126.626 Y101.472 E1.10005
G1 X126.721 Y101.525 E1.10512
G1 X127.663 Y102.115 E1.15687
G1 X127.932 Y102.303 E1.17215
G1 X128.15 Y102.459 E1.18464
G1 X128.546 Y102.752 E1.20757
G1 X129.102 Y103.174 E1.24008
G1 X130.119 Y104.048 E1.30252
G1 X130.262 Y104.187 E1.3118
G1 X130.588 Y104.518 E1.33344
G1 X130.744 Y104.683 E1.34401
G1 X131.103 Y105.077 E1.36883
G1 X131.445 Y105.466 E1.39295
G1 X131.902 Y105.999 E1.42564
G1 X132.295 Y106.486 E1.45478
G1 X133.037 Y107.458 E1.51172
G1 X133.226 Y107.694 E1.5258
G1 X134.237 Y109.042 E1.60426
G1 X134.781 Y109.737 E1.64536
G1 X135.003 Y110.029 E1.66244
G1 X135.335 Y110.501 E1.68931
G1 X135.478 Y110.716 E1.70133
G1 X135.964 Y111.518 E1.745
G1 X136.379 Y112.359 E1.78867
G1 X136.586 Y112.859 E1.81386
G1 X136.691 Y113.132 E1.82748
G1 X136.99 Y114.021 E1.87116
G1 X137.212 Y114.932 E1.91482
G1 X137.31 Y115.501 E1.94171
G1 X137.374 Y115.942 E1.96246
G1 X137.469 Y116.875 E2.00612
G1 X137.484 Y117.813 E2.04981
G1 X137.438 Y118.57 E2.08512
G1 X137.389 Y119.021 E2.10625
G1 X137.359 Y119.254 E2.11718
G1 X137.2 Y120.178 E2.16084
G1 X136.859 Y121.404 E2.2201
G1 X136.817 Y121.527 E2.22615
G1 X136.62 Y122.057 E2.25248
G1 X136.532 Y122.277 E2.26351
G1 X136.147 Y123.132 E2.30717
G1 X135.615 Y124.073 E2.35751
G1 X135.553 Y124.171 E2.36291
G1 X135.193 Y124.705 E2.3929
G1 X135.053 Y124.9 E2.40407
G1 X134.887 Y125.124 E2.41706
G1 X134.459 Y125.688 E2.45002
G1 X133.513 Y126.898 E2.52154
G1 X133.196 Y127.33 E2.54649
G1 X132.427 Y128.347 E2.60586
G1 X132.006 Y128.87 E2.63713
G1 X131.336 Y129.652 E2.68508
G1 X131.1 Y129.919 E2.70167
G1 X130.682 Y130.376 E2.73051
G1 X130.218 Y130.854 E2.76153
G1 X130.091 Y130.977 E2.76976
G1 X129.219 Y131.736 E2.82359
G1 X128.938 Y131.956 E2.84021
G1 X128.657 Y132.169 E2.85663
G1 X128.305 Y132.426 E2.87692
G1 X127.938 Y132.688 E2.89792
G1 X127.659 Y132.881 E2.91371
G1 X127.445 Y133.024 E2.9257
G1 X126.54 Y133.567 E2.97484
G1 X126.166 Y133.768 E2.99461
G1 X125.556 Y134.073 E3.02637
G1 X125.119 Y134.274 E3.04877
G1 X124.871 Y134.384 E3.0614
G1 X124.239 Y134.656 E3.09344
G1 X123.362 Y134.99 E3.13714
G1 X122.403 Y135.261 E3.18354
G1 X121.474 Y135.479 E3.22798
G1 X121.115 Y135.557 E3.24508
G1 X120.484 Y135.683 E3.27504
G1 X119.694 Y135.811 E3.31231
G1 X119.51 Y135.834 E3.32094
G1 X118.274 Y135.918 E3.37863
G1 X117.671 Y135.925 E3.40671
G1 X117.38 Y135.925 E3.42026
G1 X116.706 Y135.915 E3.45165
G1 X115.453 Y135.825 E3.51014
G1 X115.191 Y135.791 E3.52245
G1 X114.501 Y135.679 E3.555
G1 X113.691 Y135.521 E3.59342
G1 X113.325 Y135.443 E3.61085
G1 X112.757 Y135.312 E3.63799
G1 X111.853 Y135.062 E3.68166
G1 X110.915 Y134.712 E3.72828
G1 X110.066 Y134.35 E3.77126
G1 X109.722 Y134.196 E3.78881
G1 X109.292 Y133.995 E3.81091
G1 X109.014 Y133.861 E3.82528
G1 X108.773 Y133.74 E3.83784
G1 X107.954 Y133.283 E3.88151
G1 X107.366 Y132.896 E3.91429
G1 X106.659 Y132.397 E3.95458
G1 X106.377 Y132.191 E3.97084
G1 X105.978 Y131.89 E3.99412
G1 X104.948 Y131.009 E4.05723
G1 X104.787 Y130.853 E4.06767
G1 X104.337 Y130.391 E4.0977
G1 X103.746 Y129.747 E4.1384
G1 X103.509 Y129.479 E4.15506
G1 X103.105 Y129.009 E4.18392
G1 X102.718 Y128.532 E4.21252
G1 X101.809 Y127.346 E4.2821
G1 X100.808 Y126.016 E4.35961
G1 X100.204 Y125.244 E4.40525
G1 X99.967 Y124.931 E4.42354
G1 X99.632 Y124.449 E4.45087
G1 X99.488 Y124.23 E4.46307
G1 X99.006 Y123.426 E4.50672
G1 X98.595 Y122.583 E4.55039
G1 X98.404 Y122.116 E4.57389
G1 X98.3 Y121.844 E4.58745
G1 X98.003 Y120.954 E4.63113
G1 X97.783 Y120.042 E4.67482
G1 X97.688 Y119.485 E4.70113
G1 X97.625 Y119.048 E4.72169
G1 X97.53 Y118.114 E4.7654
G1 X97.516 Y117.177 E4.80904
G1 X97.556 Y116.492 E4.84099
G1 X97.565 Y116.392 E4.84567
G1 X97.622 Y115.894 E4.86901
G1 X97.654 Y115.659 E4.88005
G1 X97.82 Y114.736 E4.92372
G1 X98.164 Y113.529 E4.98216
G1 X98.204 Y113.414 E4.98783
G1 X98.373 Y112.959 E5.01043
G1 X98.459 Y112.743 E5.02126
G1 X98.843 Y111.887 E5.06494
G1 X99.361 Y110.966 E5.11414
G1 X99.425 Y110.864 E5.11975
G1 X99.804 Y110.3 E5.15139
G1 X99.951 Y110.095 E5.16314
G1 X100.13 Y109.852 E5.17719
G1 X100.543 Y109.31 E5.20892
G1 X101.529 Y108.048 E5.2835
G1 X101.827 Y107.642 E5.30695
G1 X102.591 Y106.631 E5.36595
G1 X103.007 Y106.114 E5.39685
G1 X103.65 Y105.362 E5.44292
G1 X103.887 Y105.094 E5.45958
G1 X104.265 Y104.68 E5.48569
G1 X104.585 Y104.344 E5.50729
G1 X104.742 Y104.186 E5.51766
G0 F6000 X105.026 Y104.468
G1 F1200 X105.997 Y103.603 E5.57822
G1 X106.272 Y103.387 E5.5945
G1 X106.572 Y103.16 E5.61202
G1 X106.946 Y102.888 E5.63355
G1 X107.555 Y102.456 E5.66832
G1 X108.328 Y101.957 E5.71116
G1 X108.778 Y101.708 E5.73511
G1 X108.977 Y101.604 E5.74556
G1 X109.224 Y101.479 E5.75845
G1 X109.471 Y101.358 E5.77126
G1 X109.748 Y101.227 E5.78553
G1 X110.166 Y101.037 E5.80691
G1 X110.938 Y100.701 E5.84611
G1 X111.797 Y100.372 E5.88895
G1 X112.605 Y100.137 E5.92813
G1 X112.94 Y100.054 E5.9442
G1 X113.313 Y99.969 E5.96201
G1 X113.814 Y99.864 E5.98585
G1 X114.574 Y99.713 E6.02193
G1 X115.347 Y99.589 E6.05838
G1 X115.583 Y99.56 E6.06946
G1 X116.75 Y99.482 E6.12392
G1 X117.339 Y99.475 E6.15135
G1 X117.622 Y99.475 E6.16452
G1 X118.231 Y99.484 E6.19288
G1 X119.36 Y99.561 E6.24558
G1 X119.679 Y99.6 E6.26054
G1 X120.416 Y99.717 E6.29529
G1 X121.311 Y99.891 E6.33774
G1 X121.681 Y99.97 E6.35536
G1 X122.173 Y100.084 E6.37888
G1 X123.06 Y100.33 E6.42174
G1 X123.928 Y100.655 E6.4649
G1 X124.73 Y100.996 E6.50548
G1 X125.033 Y101.131 E6.52092
G1 X125.461 Y101.329 E6.54288
G1 X125.765 Y101.475 E6.55859
G1 X126.022 Y101.604 E6.57198
G1 X126.431 Y101.821 E6.59353
G1 X126.526 Y101.874 E6.5986
G1 X127.434 Y102.443 E6.6485
G1 X127.703 Y102.631 E6.66378
G1 X127.913 Y102.781 E6.67579
G1 X128.304 Y103.071 E6.69846
G1 X128.86 Y103.493 E6.73096
G1 X129.84 Y104.335 E6.79113
G1 X129.983 Y104.474 E6.80041
G1 X130.297 Y104.793 E6.82126
G1 X130.622 Y105.14 E6.84339
G1 X130.918 Y105.47 E6.86404
G1 X131.141 Y105.726 E6.87985
G1 X131.598 Y106.259 E6.91254
G1 X131.977 Y106.728 E6.94062
G1 X132.824 Y107.838 E7.00563
G1 X132.906 Y107.934 E7.01151
G1 X133.91 Y109.272 E7.0894
G1 X134.466 Y109.983 E7.13143
G1 X134.682 Y110.268 E7.14808
G1 X135.002 Y110.723 E7.17398
G1 X135.145 Y110.938 E7.18601
G1 X135.621 Y111.726 E7.22887
G1 X136.027 Y112.552 E7.27173
G1 X136.212 Y113.003 E7.29443
G1 X136.317 Y113.276 E7.30805
G1 X136.61 Y114.149 E7.35093
G1 X136.826 Y115.044 E7.3938
G1 X136.914 Y115.559 E7.41813
G1 X136.978 Y116 E7.43888
G1 X137.071 Y116.916 E7.48175
G1 X137.083 Y117.836 E7.52459
G1 X137.04 Y118.532 E7.55706
G1 X136.992 Y118.97 E7.57758
G1 X136.962 Y119.203 E7.58852
G1 X136.805 Y120.11 E7.63138
G1 X136.48 Y121.274 E7.68766
G1 X136.438 Y121.397 E7.69371
G1 X136.249 Y121.909 E7.71912
G1 X136.161 Y122.129 E7.73015
G1 X135.782 Y122.968 E7.77302
G1 X135.277 Y123.859 E7.82071
G1 X135.215 Y123.957 E7.82611
G1 X134.868 Y124.472 E7.85503
G1 X134.728 Y124.667 E7.86621
G1 X134.568 Y124.883 E7.87872
G1 X134.144 Y125.442 E7.91139
G1 X133.188 Y126.665 E7.98367
G1 X132.877 Y127.089 E8.00816
G1 X132.108 Y128.106 E8.06753
G1 X131.703 Y128.61 E8.09764
G1 X131.033 Y129.392 E8.14559
G1 X130.805 Y129.649 E8.16158
G1 X130.387 Y130.106 E8.19042
G1 X129.939 Y130.566 E8.22032
G1 X129.812 Y130.689 E8.22855
G1 X128.972 Y131.421 E8.28044
G1 X128.691 Y131.641 E8.29705
G1 X128.421 Y131.846 E8.31284
G1 X128.073 Y132.1 E8.3329
G1 X127.706 Y132.362 E8.3539
G1 X127.436 Y132.548 E8.36916
G1 X127.222 Y132.691 E8.38115
G1 X126.351 Y133.215 E8.42848
G1 X125.977 Y133.416 E8.44825
G1 X125.388 Y133.709 E8.47888
G1 X124.951 Y133.91 E8.50128
G1 X124.712 Y134.017 E8.51347
G1 X124.08 Y134.289 E8.54551
G1 X123.22 Y134.615 E8.58834
G1 X122.312 Y134.872 E8.63228
G1 X121.383 Y135.09 E8.67671
G1 X121.037 Y135.165 E8.6932
G1 X120.406 Y135.291 E8.72316
G1 X119.645 Y135.414 E8.75906
G1 X119.461 Y135.437 E8.76769
G1 X118.269 Y135.518 E8.82332
G1 X117.666 Y135.525 E8.8514
G1 X117.386 Y135.525 E8.86444
G1 X116.712 Y135.515 E8.89583
G1 X115.505 Y135.428 E8.95218
G1 X115.243 Y135.394 E8.96448
G1 X114.578 Y135.286 E8.99585
G1 X113.768 Y135.128 E9.03428
G1 X113.415 Y135.053 E9.05108
G1 X112.847 Y134.922 E9.07822
G1 X111.96 Y134.676 E9.12109
G1 X111.071 Y134.344 E9.16527
G1 X110.222 Y133.982 E9.20825
G1 X109.891 Y133.834 E9.22513
G1 X109.461 Y133.633 E9.24724
G1 X109.194 Y133.503 E9.26106
G1 X108.953 Y133.382 E9.27362
G1 X108.149 Y132.934 E9.31648
G1 X107.597 Y132.569 E9.34729
G1 X106.89 Y132.07 E9.38759
G1 X106.618 Y131.872 E9.40325
G1 X106.219 Y131.571 E9.42653
G1 X105.227 Y130.722 E9.48733
G1 X105.066 Y130.566 E9.49776
G1 X104.632 Y130.12 E9.52674
G1 X104.041 Y129.476 E9.56744
G1 X103.813 Y129.219 E9.58344
G1 X103.409 Y128.749 E9.6123
G1 X103.035 Y128.289 E9.6399
G1 X102.128 Y127.105 E9.70935
G1 X101.129 Y125.778 E9.7867
G1 X100.519 Y124.998 E9.83281
G1 X100.289 Y124.694 E9.85056
G1 X99.966 Y124.23 E9.87688
G1 X99.822 Y124.011 E9.88909
G1 X99.35 Y123.22 E9.93198
G1 X98.778 Y121.973 E9.99586
G1 X98.674 Y121.701 E10.00942
G1 X98.383 Y120.827 E10.05231
G1 X98.169 Y119.932 E10.09516
G1 X98.083 Y119.428 E10.11897
G1 X98.02 Y118.991 E10.13953
G1 X97.929 Y118.074 E10.18244
G1 X97.917 Y117.154 E10.22528
G1 X97.955 Y116.528 E10.25448
G1 X97.964 Y116.428 E10.25916
G1 X98.018 Y115.948 E10.28165
G1 X98.05 Y115.713 E10.29269
G1 X98.214 Y114.807 E10.33557
G1 X98.541 Y113.661 E10.39106
G1 X98.581 Y113.546 E10.39673
G1 X98.745 Y113.107 E10.41855
G1 X98.831 Y112.891 E10.42938
G1 X99.208 Y112.051 E10.47225
G1 X99.7 Y111.178 E10.51891
G1 X99.764 Y111.076 E10.52452
G1 X100.129 Y110.533 E10.55498
G1 X100.276 Y110.328 E10.56673
G1 X100.448 Y110.094 E10.58025
G1 X100.858 Y109.556 E10.61175
G1 X101.839 Y108.3 E10.68596
G1 X102.146 Y107.883 E10.71007
G1 X102.91 Y106.872 E10.76908
G1 X103.311 Y106.374 E10.79885
G1 X103.954 Y105.622 E10.84492
G1 X104.182 Y105.364 E10.86095
G1 X104.56 Y104.95 E10.88706
G1 X104.869 Y104.626 E10.90791
G1 X105.026 Y104.468 E10.91828
G0 F6000 X105.31 Y104.749
G1 F1200 X106.245 Y103.918 E10.97653
G1 X106.52 Y103.702 E10.99281
G1 X106.807 Y103.484 E11.00959
G1 X107.178 Y103.215 E11.03093
G1 X107.787 Y102.783 E11.0657
G1 X108.546 Y102.293 E11.10776
G1 X108.964 Y102.062 E11.13
G1 X109.163 Y101.958 E11.14046
G1 X109.4 Y101.838 E11.15283
G1 X109.647 Y101.717 E11.16563
G1 X109.913 Y101.591 E11.17934
G1 X110.331 Y101.401 E11.20072
G1 X111.097 Y101.068 E11.23961
G1 X111.94 Y100.745 E11.28165
G1 X112.701 Y100.525 E11.31854
G1 X113.036 Y100.442 E11.33461
G1 X113.395 Y100.36 E11.35175
G1 X113.892 Y100.257 E11.37539
G1 X114.652 Y100.106 E11.41147
G1 X115.396 Y99.986 E11.44656
G1 X115.632 Y99.957 E11.45763
G1 X116.755 Y99.882 E11.51004
G1 X117.344 Y99.875 E11.53747
G1 X117.616 Y99.875 E11.55013
G1 X118.225 Y99.884 E11.57849
G1 X119.312 Y99.958 E11.62923
G1 X119.631 Y99.997 E11.64419
G1 X120.34 Y100.109 E11.67761
G1 X121.235 Y100.283 E11.72007
G1 X121.59 Y100.359 E11.73697
G1 X122.082 Y100.473 E11.76049
G1 X122.952 Y100.716 E11.80255
G1 X123.771 Y101.023 E11.84328
G1 X124.573 Y101.364 E11.88386
G1 X124.865 Y101.494 E11.89874
G1 X125.293 Y101.692 E11.9207
G1 X125.586 Y101.833 E11.93584
G1 X125.843 Y101.962 E11.94923
G1 X126.236 Y102.17 E11.96994
G1 X126.331 Y102.223 E11.975
G1 X127.205 Y102.77 E12.02301
G1 X127.474 Y102.958 E12.03829
G1 X127.941 Y103.299 E12.06522
G1 X128.063 Y103.389 E12.07228
G1 X128.619 Y103.811 E12.10478
G1 X129.561 Y104.622 E12.16266
G1 X129.704 Y104.761 E12.17195
G1 X130.007 Y105.067 E12.192
G1 X130.325 Y105.408 E12.21371
G1 X130.617 Y105.733 E12.23406
G1 X130.837 Y105.987 E12.2497
G1 X131.294 Y106.52 E12.2824
G1 X131.66 Y106.971 E12.30944
G1 X132.486 Y108.053 E12.37283
G1 X132.586 Y108.174 E12.38014
G1 X133.601 Y109.527 E12.45889
G1 X134.151 Y110.23 E12.50046
G1 X134.361 Y110.507 E12.51664
G1 X134.669 Y110.944 E12.54154
G1 X134.812 Y111.159 E12.55356
G1 X135.278 Y111.933 E12.59563
G1 X135.839 Y113.146 E12.65786
G1 X135.944 Y113.419 E12.67148
G1 X136.231 Y114.276 E12.71356
G1 X136.44 Y115.154 E12.75559
G1 X136.518 Y115.616 E12.77741
G1 X136.582 Y116.057 E12.79816
G1 X136.672 Y116.956 E12.84023
G1 X136.682 Y117.859 E12.88228
G1 X136.642 Y118.494 E12.9119
G1 X136.595 Y118.919 E12.93181
G1 X136.565 Y119.152 E12.94275
G1 X136.411 Y120.041 E12.98477
G1 X136.102 Y121.145 E13.03815
G1 X136.06 Y121.268 E13.0442
G1 X135.877 Y121.76 E13.06864
G1 X135.789 Y121.98 E13.07968
G1 X135.417 Y122.803 E13.12173
G1 X134.939 Y123.645 E13.16682
G1 X134.877 Y123.743 E13.17222
G1 X134.543 Y124.239 E13.20006
G1 X134.403 Y124.434 E13.21124
G1 X134.25 Y124.641 E13.22322
G1 X133.829 Y125.195 E13.25562
G1 X132.884 Y126.404 E13.32708
G1 X132.558 Y126.848 E13.35273
G1 X131.789 Y127.865 E13.4121
G1 X131.399 Y128.349 E13.44104
G1 X130.729 Y129.131 E13.48899
G1 X130.509 Y129.379 E13.50443
G1 X130.091 Y129.836 E13.53326
G1 X129.661 Y130.279 E13.56201
G1 X129.534 Y130.402 E13.57024
G1 X128.726 Y131.106 E13.62015
G1 X128.445 Y131.326 E13.63676
G1 X128.185 Y131.524 E13.65198
G1 X127.84 Y131.775 E13.67185
G1 X127.473 Y132.037 E13.69284
G1 X127.214 Y132.216 E13.7075
G1 X127 Y132.359 E13.71949
G1 X126.162 Y132.863 E13.76502
G1 X125.788 Y133.064 E13.78479
G1 X125.221 Y133.346 E13.81428
G1 X124.784 Y133.547 E13.83668
G1 X124.554 Y133.649 E13.8484
G1 X123.922 Y133.921 E13.88043
G1 X123.078 Y134.241 E13.92246
G1 X122.22 Y134.482 E13.96396
G1 X121.291 Y134.7 E14.00839
G1 X120.958 Y134.773 E14.02427
G1 X120.327 Y134.899 E14.05423
G1 X119.595 Y135.017 E14.08876
G1 X119.411 Y135.04 E14.09739
G1 X118.264 Y135.118 E14.15092
G1 X117.661 Y135.125 E14.179
G1 X117.392 Y135.125 E14.19153
G1 X116.718 Y135.115 E14.22292
G1 X115.556 Y135.031 E14.27717
G1 X115.294 Y134.997 E14.28947
G1 X114.654 Y134.893 E14.31966
G1 X113.844 Y134.735 E14.35809
G1 X113.505 Y134.663 E14.37422
G1 X112.937 Y134.532 E14.40137
G1 X112.067 Y134.29 E14.44342
G1 X111.228 Y133.976 E14.48513
G1 X110.379 Y133.614 E14.52811
G1 X110.061 Y133.471 E14.54434
G1 X109.631 Y133.27 E14.56644
G1 X109.373 Y133.146 E14.57977
G1 X109.132 Y133.025 E14.59233
G1 X108.344 Y132.584 E14.63438
G1 X107.827 Y132.242 E14.66324
G1 X107.12 Y131.743 E14.70354
G1 X106.859 Y131.553 E14.71857
G1 X106.46 Y131.252 E14.74184
G1 X105.505 Y130.434 E14.80039
G1 X105.344 Y130.278 E14.81083
