;FLAVOR:Marlin
;TIME:17349
;Filament used: 10.6385m
;Layer height: 0.2
;MINX:24
;MINY:51
;MINZ:0.2
;MAXX:211
;MAXY:184
;MAXZ:10
;Generated with Cura_SteamEngine 4.13.1
M140 S50
M105
M190 S50
M104 S200
M105
M109 S200
M82 ;absolute extrusion mode
; Ender 3 Custom Start G-code
G92 E0 ; Reset Extruder
G28 ; Home all axes
G1 Z2.0 F3000 ; Move Z Axis up little to prevent scratching of Heat Bed
G1 X0.1 Y20 Z0.3 F5000.0 ; Move to start position
G1 X0.1 Y200.0 Z0.3 F1500.0 E15 ; Draw the first line
G1 X0.4 Y200.0 Z0.3 F5000.0 ; Move to side a little
G1 X0.4 Y20 Z0.3 F1500.0 E30 ; Draw the second line
G92 E0 ; Reset Extruder
G1 Z2.0 F3000 ; Move Z Axis up little to prevent scratching of Heat Bed
G1 X5 Y20 Z0.3 F5000.0 ; Move over to prevent blob squish
G92 E0
G92 E0
G1 F2700 E-5
;LAYER_COUNT:50
;LAYER:0
M107
G0 F6000 X29.412 Y52.539 Z0.2
;TYPE:SKIRT
G1 F2700 E0
G1 F1200 X30.239 Y52.097 E0.03119
G1 X31.101 Y51.727 E0.06239
G1 X31.991 Y51.431 E0.09358
G1 X32.903 Y51.213 E0.12477
G1 X33.83 Y51.072 E0.15596
G1 X34.701 Y51.013 E0.18499
G1 X35.022 Y51.004 E0.19567
G1 X35.33 Y51 E0.20592
G1 X199.293 Y51 E5.65935
G1 X200.149 Y51.011 E5.68782
G1 X201.085 Y51.065 E5.71901
G1 X202.013 Y51.197 E5.75018
G1 X202.927 Y51.409 E5.78139
G1 X203.819 Y51.698 E5.81258
G1 X204.684 Y52.061 E5.84378
G1 X205.514 Y52.497 E5.87496
G1 X206.305 Y53.002 E5.90617
G1 X207.049 Y53.573 E5.93737
G1 X207.742 Y54.205 E5.96856
G1 X208.379 Y54.893 E5.99975
G1 X208.954 Y55.634 E6.03094
G1 X209.465 Y56.42 E6.06212
G1 X209.907 Y57.248 E6.09334
G1 X210.276 Y58.11 E6.12453
G1 X210.571 Y59 E6.15571
G1 X210.789 Y59.912 E6.1869
G1 X210.929 Y60.84 E6.21812
G1 X210.987 Y61.701 E6.24682
G1 X210.996 Y62.021 E6.25747
G1 X211 Y62.33 E6.26774
G1 X210.999 Y172.4 E9.92869
G1 X210.99 Y173.127 E9.95287
G1 X210.939 Y174.064 E9.98408
G1 X210.807 Y174.992 E10.01526
G1 X210.598 Y175.906 E10.04644
G1 X210.311 Y176.799 E10.07764
G1 X209.949 Y177.665 E10.10886
G1 X209.515 Y178.496 E10.14004
G1 X209.011 Y179.287 E10.17123
G1 X208.442 Y180.032 E10.20241
G1 X207.811 Y180.727 E10.23363
G1 X207.124 Y181.365 E10.26482
G1 X206.385 Y181.942 E10.296
G1 X205.599 Y182.454 E10.3272
G1 X204.773 Y182.897 E10.35838
G1 X203.911 Y183.269 E10.3896
G1 X203.022 Y183.565 E10.42077
G1 X202.11 Y183.785 E10.45197
G1 X201.183 Y183.926 E10.48316
G1 X200.299 Y183.987 E10.51263
G1 X199.978 Y183.996 E10.52331
G1 X199.67 Y184 E10.53355
G1 X35.565 Y183.999 E15.99171
G1 X34.867 Y183.99 E16.01493
G1 X33.931 Y183.938 E16.04611
G1 X33.002 Y183.806 E16.07731
G1 X32.088 Y183.596 E16.10851
G1 X31.195 Y183.309 E16.1397
G1 X30.33 Y182.946 E16.1709
G1 X29.499 Y182.512 E16.20209
G1 X28.708 Y182.008 E16.23328
G1 X27.963 Y181.438 E16.26448
G1 X27.269 Y180.807 E16.29568
G1 X26.632 Y180.12 E16.32684
G1 X26.055 Y179.38 E16.35805
G1 X25.543 Y178.594 E16.38925
G1 X25.1 Y177.767 E16.42045
G1 X24.729 Y176.906 E16.45163
G1 X24.433 Y176.016 E16.48283
G1 X24.214 Y175.104 E16.51403
G1 X24.073 Y174.177 E16.54521
G1 X24.013 Y173.288 E16.57485
G1 X24.004 Y172.955 E16.58593
G1 X24 Y172.658 E16.59581
G1 X24.001 Y62.525 E20.25885
G1 X24.01 Y61.86 E20.28097
G1 X24.063 Y60.924 E20.31215
G1 X24.195 Y59.995 E20.34336
G1 X24.406 Y59.081 E20.37456
G1 X24.694 Y58.189 E20.40573
G1 X25.057 Y57.324 E20.43693
G1 X25.492 Y56.493 E20.46813
G1 X25.996 Y55.703 E20.4993
G1 X26.566 Y54.958 E20.5305
G1 X27.198 Y54.264 E20.56172
G1 X27.886 Y53.627 E20.5929
G1 X28.626 Y53.051 E20.62409
G1 X29.412 Y52.539 E20.65529
G0 F6000 X29.791 Y52.782
G1 F1200 X30.611 Y52.364 E20.6859
G1 X31.465 Y52.019 E20.71654
G1 X32.345 Y51.749 E20.74715
G1 X33.245 Y51.557 E20.77776
G1 X34.159 Y51.443 E20.8084
G1 X34.712 Y51.413 E20.82682
G1 X35.033 Y51.404 E20.8375
G1 X35.33 Y51.4 E20.84737
G1 X199.293 Y51.4 E26.30081
G1 X200.143 Y51.411 E26.32908
G1 X201.062 Y51.464 E26.3597
G1 X201.973 Y51.597 E26.39032
G1 X202.869 Y51.808 E26.42093
G1 X203.743 Y52.096 E26.45154
G1 X204.59 Y52.459 E26.48219
G1 X205.401 Y52.894 E26.5128
G1 X206.171 Y53.398 E26.54341
G1 X206.895 Y53.967 E26.57404
G1 X207.567 Y54.597 E26.60467
G1 X208.182 Y55.282 E26.63529
G1 X208.735 Y56.018 E26.66591
G1 X209.222 Y56.799 E26.69652
G1 X209.639 Y57.62 E26.72715
G1 X209.984 Y58.474 E26.75778
G1 X210.253 Y59.354 E26.78839
G1 X210.445 Y60.255 E26.81903
G1 X210.558 Y61.168 E26.84963
G1 X210.587 Y61.712 E26.86775
G1 X210.596 Y62.032 E26.87839
G1 X210.6 Y62.33 E26.88831
G1 X210.599 Y172.395 E30.54908
G1 X210.59 Y173.122 E30.57327
G1 X210.539 Y174.041 E30.60388
G1 X210.408 Y174.953 E30.63452
G1 X210.198 Y175.849 E30.66513
G1 X209.912 Y176.724 E30.69575
G1 X209.551 Y177.571 E30.72637
G1 X209.117 Y178.383 E30.757
G1 X208.615 Y179.155 E30.78762
G1 X208.047 Y179.88 E30.81826
G1 X207.419 Y180.553 E30.84887
G1 X206.735 Y181.169 E30.87949
G1 X206 Y181.723 E30.9101
G1 X205.22 Y182.212 E30.94072
G1 X204.4 Y182.631 E30.97135
G1 X203.547 Y182.977 E31.00196
G1 X202.667 Y183.248 E31.03259
G1 X201.767 Y183.441 E31.0632
G1 X200.853 Y183.556 E31.09384
G1 X200.288 Y183.587 E31.11266
G1 X199.967 Y183.596 E31.12334
G1 X199.67 Y183.6 E31.13322
G1 X35.57 Y183.599 E36.59121
G1 X34.872 Y183.59 E36.61443
G1 X33.953 Y183.538 E36.64504
G1 X33.042 Y183.407 E36.67566
G1 X32.146 Y183.197 E36.70627
G1 X31.271 Y182.91 E36.73689
G1 X30.424 Y182.548 E36.76753
G1 X29.612 Y182.114 E36.79815
G1 X28.841 Y181.612 E36.82875
G1 X28.116 Y181.044 E36.85939
G1 X27.443 Y180.415 E36.89002
G1 X26.828 Y179.731 E36.92062
G1 X26.274 Y178.996 E36.95123
G1 X25.786 Y178.215 E36.98186
G1 X25.367 Y177.395 E37.01249
G1 X25.021 Y176.542 E37.0431
G1 X24.751 Y175.662 E37.07372
G1 X24.558 Y174.761 E37.10437
G1 X24.444 Y173.848 E37.13497
G1 X24.413 Y173.277 E37.15399
G1 X24.404 Y172.944 E37.16507
G1 X24.4 Y172.658 E37.17458
G1 X24.401 Y62.531 E40.83742
G1 X24.41 Y61.866 E40.85954
G1 X24.462 Y60.946 E40.89019
G1 X24.594 Y60.035 E40.9208
G1 X24.805 Y59.139 E40.95142
G1 X25.092 Y58.264 E40.98205
G1 X25.455 Y57.418 E41.01267
G1 X25.889 Y56.606 E41.04329
G1 X26.392 Y55.835 E41.07391
G1 X26.961 Y55.111 E41.10454
G1 X27.589 Y54.439 E41.13513
G1 X28.274 Y53.823 E41.16577
G1 X29.01 Y53.27 E41.19639
G1 X29.791 Y52.782 E41.22702
G0 F6000 X30.169 Y53.031
G1 F1200 X30.982 Y52.638 E41.25705
G1 X31.827 Y52.318 E41.2871
G1 X32.696 Y52.075 E41.31712
G1 X33.584 Y51.909 E41.34716
G1 X34.723 Y51.813 E41.38518
G1 X35.044 Y51.804 E41.39586
G1 X35.33 Y51.8 E41.40537
G1 X199.293 Y51.8 E46.85881
G1 X200.137 Y51.811 E46.88688
G1 X201.039 Y51.864 E46.91693
G1 X201.932 Y51.996 E46.94696
G1 X202.81 Y52.207 E46.97699
G1 X203.666 Y52.495 E47.00703
G1 X204.493 Y52.857 E47.03706
G1 X205.285 Y53.292 E47.06711
G1 X206.036 Y53.794 E47.09715
G1 X206.739 Y54.361 E47.12719
G1 X207.389 Y54.988 E47.15723
G1 X207.981 Y55.67 E47.18727
G1 X208.511 Y56.401 E47.2173
G1 X208.973 Y57.177 E47.24734
G1 X209.366 Y57.99 E47.27737
G1 X209.684 Y58.835 E47.3074
G1 X209.927 Y59.705 E47.33744
G1 X210.092 Y60.593 E47.36748
G1 X210.187 Y61.723 E47.4052
G1 X210.196 Y62.043 E47.41585
G1 X210.2 Y62.33 E47.4254
G1 X210.199 Y172.39 E51.08601
G1 X210.19 Y173.117 E51.11019
G1 X210.139 Y174.019 E51.14024
G1 X210.008 Y174.913 E51.17029
G1 X209.799 Y175.791 E51.20031
G1 X209.513 Y176.648 E51.23036
G1 X209.152 Y177.476 E51.2604
G1 X208.72 Y178.268 E51.2904
G1 X208.219 Y179.02 E51.32046
G1 X207.653 Y179.724 E51.3505
G1 X207.028 Y180.375 E51.38052
G1 X206.347 Y180.969 E51.41057
G1 X205.616 Y181.5 E51.44063
G1 X204.842 Y181.964 E51.47064
G1 X204.029 Y182.358 E51.50069
G1 X203.185 Y182.678 E51.53071
G1 X202.315 Y182.923 E51.56077
G1 X201.428 Y183.089 E51.59079
G1 X200.277 Y183.187 E51.62921
G1 X199.956 Y183.196 E51.63989
G1 X199.67 Y183.2 E51.6494
G1 X35.575 Y183.199 E57.10722
G1 X34.877 Y183.19 E57.13044
G1 X33.976 Y183.139 E57.16046
G1 X33.082 Y183.007 E57.19051
G1 X32.204 Y182.798 E57.22053
G1 X31.347 Y182.511 E57.25059
G1 X30.52 Y182.15 E57.2806
G1 X29.727 Y181.717 E57.31065
G1 X28.976 Y181.216 E57.34068
G1 X28.272 Y180.65 E57.37073
G1 X27.621 Y180.024 E57.40076
G1 X27.028 Y179.343 E57.4308
G1 X26.498 Y178.612 E57.46083
G1 X26.034 Y177.837 E57.49087
G1 X25.64 Y177.024 E57.52092
G1 X25.32 Y176.18 E57.55094
G1 X25.076 Y175.31 E57.581
G1 X24.91 Y174.422 E57.61104
G1 X24.813 Y173.267 E57.64959
G1 X24.804 Y172.934 E57.66067
G1 X24.8 Y172.658 E57.66985
G1 X24.801 Y62.536 E61.33253
G1 X24.81 Y61.871 E61.35465
G1 X24.862 Y60.969 E61.3847
G1 X24.994 Y60.076 E61.41472
G1 X25.204 Y59.198 E61.44475
G1 X25.491 Y58.341 E61.47481
G1 X25.853 Y57.514 E61.50483
G1 X26.286 Y56.722 E61.53485
G1 X26.788 Y55.971 E61.5649
G1 X27.355 Y55.267 E61.59496
G1 X27.981 Y54.617 E61.62498
G1 X28.662 Y54.024 E61.65501
G1 X29.394 Y53.494 E61.68507
G1 X30.169 Y53.031 E61.7151
G1 F2700 E56.7151
;MESH:socket-2mendocino.stl
G0 F6000 X43.673 Y66.096
G0 X85.847 Y66.153
G0 X85.904 Y106.959
G0 X101.547 Y122.096
G0 X140.847 Y122.153
G0 X140.903 Y160.178
G0 X149.165 Y168.173
G0 X147.73 Y168.173
G0 X147.9 Y170.1
;TYPE:WALL-INNER
G1 F2700 E61.7151
G1 F1200 X197.1 Y170.1 E63.3515
G1 X197.1 Y120.9 E64.98789
G1 X147.9 Y120.9 E66.62429
G1 X147.9 Y170.1 E68.26069
G0 F6000 X148.3 Y169.7
;TYPE:WALL-OUTER
G1 F1200 X196.7 Y169.7 E69.87048
G1 X196.7 Y121.3 E71.48027
G1 X148.3 Y121.3 E73.09006
G1 X148.3 Y169.7 E74.69985
G1 F2700 E69.69985
G0 F6000 X148 Y169.7
G0 X147.9 Y120.71
G0 X149.153 Y122.153
G0 X149.153 Y112.847
G0 X147.9 Y114.29
G0 X147.9 Y114.1
;TYPE:WALL-INNER
G1 F2700 E74.69985
G1 F1200 X197.1 Y114.1 E76.33625
G1 X197.1 Y64.9 E77.97265
G1 X147.9 Y64.9 E79.60905
G1 X147.9 Y114.1 E81.24545
G0 F6000 X148.3 Y113.7
;TYPE:WALL-OUTER
G1 F1200 X196.7 Y113.7 E82.85524
G1 X196.7 Y65.3 E84.46503
G1 X148.3 Y65.3 E86.07482
G1 X148.3 Y113.7 E87.68461
G1 F2700 E82.68461
G0 F6000 X148 Y113.7
G0 X147.71 Y114.1
G0 X149.153 Y112.847
G0 X140.847 Y112.847
G0 X142.29 Y114.1
G0 X92.9 Y114.1
;TYPE:WALL-INNER
G1 F2700 E87.68461
G1 F1200 X142.1 Y114.1 E89.32101
G1 X142.1 Y64.9 E90.95741
G1 X92.9 Y64.9 E92.59381
G1 X92.9 Y114.1 E94.2302
G0 F6000 X93.3 Y113.7
;TYPE:WALL-OUTER
G1 F1200 X141.7 Y113.7 E95.84
G1 X141.7 Y65.3 E97.44979
G1 X93.3 Y65.3 E99.05958
G1 X93.3 Y113.7 E100.66937
G1 F2700 E95.66937
G0 F6000 X93 Y113.7
G0 X92.71 Y114.1
G0 X94.153 Y112.847
G0 X85.847 Y112.847
G0 X87.29 Y114.1
G0 X87.1 Y114.1
;TYPE:WALL-INNER
G1 F2700 E100.66937
G1 F1200 X87.1 Y64.9 E102.30577
G1 X37.9 Y64.9 E103.94216
G1 X37.9 Y114.1 E105.57856
G1 X87.1 Y114.1 E107.21496
G0 F6000 X86.7 Y113.7
;TYPE:WALL-OUTER
G1 F1200 X86.7 Y65.3 E108.82475
G1 X38.3 Y65.3 E110.43454
G1 X38.3 Y113.7 E112.04433
G1 X86.7 Y113.7 E113.65412
G1 F2700 E108.65412
G0 F6000 X87 Y113.7
G0 X87.1 Y114.29
G0 X85.847 Y112.847
G0 X85.847 Y122.153
G0 X87.1 Y120.71
G0 X87.1 Y170.1
;TYPE:WALL-INNER
G1 F2700 E113.65412
G1 F1200 X87.1 Y120.9 E115.29052
G1 X37.9 Y120.9 E116.92692
G1 X37.9 Y170.1 E118.56332
G1 X87.1 Y170.1 E120.19972
G0 F6000 X86.7 Y169.7
;TYPE:WALL-OUTER
G1 F1200 X86.7 Y121.3 E121.80951
G1 X38.3 Y121.3 E123.4193
G1 X38.3 Y169.7 E125.02909
G1 X86.7 Y169.7 E126.63888
G1 F2700 E121.63888
G0 F6000 X87 Y169.7
G0 X87.29 Y170.1
G0 X85.847 Y168.847
G0 X94.153 Y168.847
G0 X92.71 Y170.1
G0 X92.9 Y170.1
;TYPE:WALL-INNER
G1 F2700 E126.63888
G1 F1200 X142.1 Y170.1 E128.27528
G1 X142.1 Y120.9 E129.91168
G1 X92.9 Y120.9 E131.54808
G1 X92.9 Y170.1 E133.18447
G0 F6000 X93.3 Y169.7
;TYPE:WALL-OUTER
G1 F1200 X141.7 Y169.7 E134.79427
G1 X141.7 Y121.3 E136.40406
G1 X93.3 Y121.3 E138.01385
G1 X93.3 Y169.7 E139.62364
G1 F2700 E134.62364
G0 F6000 X93 Y169.7
G0 X142.29 Y170.29
G0 X142.29 Y172.19
G0 X199.4 Y172.4
;TYPE:WALL-INNER
G1 F2700 E139.62364
G1 F1200 X35.6 Y172.4 E145.07165
G1 X35.6 Y62.6 E148.72361
G1 X199.4 Y62.6 E154.17162
G1 X199.4 Y172.4 E157.82358
G0 F6000 X199.8 Y172.8
;TYPE:WALL-OUTER
G1 F1200 X35.2 Y172.8 E163.2982
G1 X35.2 Y62.2 E166.97677
G1 X199.8 Y62.2 E172.45139
G1 X199.8 Y172.8 E176.12996
G0 F6000 X199.53 Y172.53
G0 X199.29 Y172.01
G0 X199.01 Y172.01
;TYPE:SKIN
G1 F1200 X35.99 Y172.01 E181.55203
G1 X35.99 Y62.99 E185.17805
G1 X199.01 Y62.99 E190.60012
G1 X199.01 Y172.01 E194.22614
G1 F2700 E189.22614
G0 F6000 X199.29 Y172.01
G0 X199.19 Y170.24
G0 X197.29 Y170.24
G1 F2700 E194.22614
G0 F6000 X197.49 Y170.49
G1 F1200 X197.49 Y120.51 E195.88848
G1 X147.51 Y120.51 E197.55082
G1 X147.51 Y170.49 E199.21316
G1 X197.49 Y170.49 E200.8755
G1 F2700 E195.8755
G0 F6000 X197.21 Y170.24
G0 X147.71 Y170.24
G0 X149.153 Y168.847
G0 X140.847 Y168.847
G0 X142.29 Y170.24
G1 F2700 E200.8755
G0 F6000 X142.49 Y170.49
G1 F1200 X142.49 Y120.51 E202.53784
G1 X92.51 Y120.51 E204.20018
G1 X92.51 Y170.49 E205.86253
G1 X142.49 Y170.49 E207.52487
G1 F2700 E202.52487
G0 F6000 X142.21 Y170.24
G0 X92.71 Y170.24
G0 X94.153 Y168.847
G0 X85.847 Y168.847
G0 X87.29 Y170.24
G1 F2700 E207.52487
G0 F6000 X87.49 Y170.49
G1 F1200 X87.49 Y120.51 E209.18721
G1 X37.51 Y120.51 E210.84955
G1 X37.51 Y170.49 E212.51189
G1 X87.49 Y170.49 E214.17423
G1 F2700 E209.17423
G0 F6000 X87.21 Y170.24
G0 X87.21 Y120.71
G0 X85.847 Y122.153
G0 X85.847 Y112.847
G0 X87.21 Y114.29
G1 F2700 E214.17423
G0 F6000 X87.49 Y114.49
G1 F1200 X87.49 Y64.51 E215.83658
G1 X37.51 Y64.51 E217.49892
G1 X37.51 Y114.49 E219.16126
G1 X87.49 Y114.49 E220.8236
G1 F2700 E215.8236
G0 F6000 X87.21 Y114.24
G0 X85.847 Y112.847
G0 X94.153 Y112.847
G0 X92.71 Y114.24
G0 X142.21 Y114.24
G1 F2700 E220.8236
G0 F6000 X142.49 Y114.49
G1 F1200 X142.49 Y64.51 E222.48594
G1 X92.51 Y64.51 E224.14828
G1 X92.51 Y114.49 E225.81063
G1 X142.49 Y114.49 E227.47297
G1 F2700 E222.47297
G0 F6000 X142.21 Y114.24
G0 X140.847 Y112.847
G0 X149.153 Y112.847
G0 X147.71 Y114.24
G0 X197.21 Y114.24
G1 F2700 E227.47297
G0 F6000 X197.49 Y114.49
G1 F1200 X197.49 Y64.51 E229.13531
G1 X147.51 Y64.51 E230.79765
G1 X147.51 Y114.49 E232.45999
G1 X197.49 Y114.49 E234.12233
G1 F2700 E229.12233
G0 F6000 X197.21 Y114.24
G0 X196.9 Y65.1
G0 X199.19 Y65.1
G0 X199.29 Y63.65
G1 F2700 E234.12233
G0 F6000 X198.849 Y63.65
G1 F1200 X198.348 Y63.149 E234.1459
G0 F6000 X197.782 Y63.149
G1 F1200 X198.849 Y64.215 E234.19606
G0 F6000 X198.849 Y64.781
G1 F1200 X197.217 Y63.149 E234.27283
G0 F6000 X196.651 Y63.149
G1 F1200 X198.849 Y65.347 E234.37621
G0 F6000 X198.849 Y65.912
G1 F1200 X197.649 Y64.712 E234.43266
G0 F6000 X197.285 Y64.349
G1 F1200 X196.085 Y63.149 E234.4891
G0 F6000 X195.519 Y63.149
G1 F1200 X196.719 Y64.349 E234.54555
G0 F6000 X196.154 Y64.349
G1 F1200 X194.954 Y63.149 E234.60199
G0 F6000 X194.388 Y63.149
G1 F1200 X195.588 Y64.349 E234.65844
G0 F6000 X195.022 Y64.349
G1 F1200 X193.822 Y63.149 E234.71488
G0 F6000 X193.257 Y63.149
G1 F1200 X194.457 Y64.349 E234.77132
G0 F6000 X193.891 Y64.349
G1 F1200 X192.691 Y63.149 E234.82777
G0 F6000 X192.125 Y63.149
G1 F1200 X193.325 Y64.349 E234.88421
G0 F6000 X192.76 Y64.349
G1 F1200 X191.56 Y63.149 E234.94066
G0 F6000 X190.994 Y63.149
G1 F1200 X192.194 Y64.349 E234.9971
G0 F6000 X191.628 Y64.349
G1 F1200 X190.428 Y63.149 E235.05355
G0 F6000 X189.863 Y63.149
G1 F1200 X191.063 Y64.349 E235.10999
G0 F6000 X190.497 Y64.349
G1 F1200 X189.297 Y63.149 E235.16644
G0 F6000 X188.731 Y63.149
G1 F1200 X189.931 Y64.349 E235.22288
G0 F6000 X189.366 Y64.349
G1 F1200 X188.166 Y63.149 E235.27932
G0 F6000 X187.6 Y63.149
G1 F1200 X188.8 Y64.349 E235.33577
G0 F6000 X188.234 Y64.349
G1 F1200 X187.034 Y63.149 E235.39221
G0 F6000 X186.469 Y63.149
G1 F1200 X187.668 Y64.349 E235.44863
G0 F6000 X187.103 Y64.349
G1 F1200 X185.903 Y63.149 E235.50508
G0 F6000 X185.337 Y63.149
G1 F1200 X186.537 Y64.349 E235.56152
G0 F6000 X185.971 Y64.349
G1 F1200 X184.771 Y63.149 E235.61797
G0 F6000 X184.206 Y63.149
G1 F1200 X185.406 Y64.349 E235.67441
G0 F6000 X184.84 Y64.349
G1 F1200 X183.64 Y63.149 E235.73085
G0 F6000 X183.074 Y63.149
G1 F1200 X184.274 Y64.349 E235.7873
G0 F6000 X183.709 Y64.349
G1 F1200 X182.509 Y63.149 E235.84374
G0 F6000 X181.943 Y63.149
G1 F1200 X183.143 Y64.349 E235.90019
G0 F6000 X182.577 Y64.349
G1 F1200 X181.377 Y63.149 E235.95663
G0 F6000 X180.812 Y63.149
G1 F1200 X182.012 Y64.349 E236.01308
G0 F6000 X181.446 Y64.349
G1 F1200 X180.246 Y63.149 E236.06952
G0 F6000 X179.68 Y63.149
G1 F1200 X180.88 Y64.349 E236.12597
G0 F6000 X180.315 Y64.349
G1 F1200 X179.115 Y63.149 E236.18241
G0 F6000 X178.549 Y63.149
G1 F1200 X179.749 Y64.349 E236.23885
G0 F6000 X179.183 Y64.349
